X:187
T:Kitty the Hare
Z: id:dc-reel-389
M:C
L:1/8
K:A Dorian
G|A2cA eAcA|eAaA gedB|G2BG dGBA|Bdgd BGGB|!
A2cA eAcA|eAaA gedB|G2BG dGBA|BedB A3:|!
B|c2cB cedB|G2BG DGBG|c2cB cedB|GABG A3B|!
[1 c2cB cedB|G2BG DGBG|c2cB cedB|GABG A3:|!
[2 cAA2 cAFA|GDB,D G,DB,D|c2cB cedB|GABG A3|]!

